!!!COM: Music21
!!!OTL: Un Adeus a Ponferrada
!!!OMV: pezas_polca_un-adeus-a-ponferrada_un-adeus-a-ponferrada-partitura.musicxml
**kern
*I"Bagpipes
*I'Bag
*clefG^2
*k[b-]
*F:
*M2/4
=1
!LO:TX:a:t=Andante
*MM96
!LO:TX:a:t=[quarter]=96
16cccLL
16bb-
16aa
16ggJJ
16cccLL
16bb-
16aa
16ggJJ
=
8aaL
16ggL
16aaJJ
16ffLL
16cc
16ff
16aaJJ
=
16dddLL
16ccc
16bb-
16aaJJ
16cccLL
16bb-
16aa
16ggJJ
=
16cccLL
16ddd
16bb-
16cccJJ
8aaL
16ffL
16aaJJ
=
16cccLL
16bb-
16aa
16ggJJ
16cccLL
16bb-
16aa
16ggJJ
!!linebreak:original
=
8aaL
16ggL
16aaJJ
16ffLL
16cc
16ff
16aaJJ
=
16dddLL
16ccc
16bb-
16aaJJ
16cccLL
16cc
16aa
16ggJJ
=
4.ff
8cc
=||
*M2/4
!LO:TX:a:t=Andante
*MM96
!LO:TX:a:t=[quarter]=96
16cccLL
16bb-
16aa
16ggJJ
16cccLL
16bb-
16aa
16ggJJ
=
8aaL
16ggL
16aaJJ
16ffLL
16cc
16ff
16aaJJ
!!linebreak:original
=
16dddLL
16ccc
16bb-
16aaJJ
16cccLL
16bb-
16aa
16ggJJ
=
16cccLL
16ddd
16bb-
16cccJJ
8aaL
16ffL
16aaJJ
=
16cccLL
16bb-
16aa
16ggJJ
16cccLL
16bb-
16aa
16ggJJ
!!linebreak:original
=
8aaL
16ggL
16aaJJ
16ffLL
16cc
16ff
16aaJJ
=
16dddLL
16ccc
16bb-
16aaJJ
16cccLL
16cc
16aa
16ggJJ
=
4.ff
16ccLL
16ffJJ
=||
16cccLL
16dd
16ff
16cccJJ
16eeLL
16ff
16ccc
16ffJJ
=
16cccLL
16ddd
16ccc
16bb-JJ
8aaL
16ggL
16aaJJ
!!linebreak:original
=
16bb-LL
16aa
16gg
16ffJJ
16eeLL
16ff
16gg
16ffJJ
=
16eeLL
16gg
16ee
16ddJJ
8ccL
16ccL
16ffJJ
=
16aaLL
16dd
16ff
16aaJJ
16ccLL
16ff
16aa
16ddJJ
=
16bb-LL
16aa
16gg
16ffJJ
8eeL
16eeL
16ffJJ
=
16ggLL
16ff
16ee
16ddJJ
16ccLL
16dd
16ee
16ggJJ
!!linebreak:original
=
4.ff
16ccLL
16ffJJ
=||
16cccLL
16dd
16ff
16cccJJ
16eeLL
16ff
16ccc
16ffJJ
=
16cccLL
16ddd
16ccc
16bb-JJ
8aaL
16ggL
16aaJJ
!!linebreak:original
=
16bb-LL
16aa
16gg
16ffJJ
16eeLL
16ff
16gg
16ffJJ
=
16eeLL
16gg
16ee
16ddJJ
8ccL
16ccL
16ffJJ
=
16aaLL
16dd
16ff
16aaJJ
16ccLL
16ff
16aa
16ddJJ
=
16bb-LL
16aa
16gg
16ffJJ
8eeL
16eeL
16ffJJ
=
16ggLL
16ff
16ee
16ddJJ
16ccLL
16dd
16ee
16ggJJ
=
4.ff
8cc
=||
*-
